web/themes/custom/dewert_theme/styleguide/images/icons/icn-error.svg

<svg xmlns="http://www.w3.org/2000/svg" width="20" height="20" viewBox="0 0 20 20">
  <path fill="#E06148" fill-rule="evenodd" d="M10,8.586 L6.47,5.056 C6.28263657,4.86663112 6.02763594,4.75957724 5.76124457,4.75845164 C5.4948532,4.75732604 5.23895701,4.8622212 5.05,5.05 C4.8615952,5.23856371 4.75617983,5.49448471 4.75711841,5.76104008 C4.75805698,6.02759544 4.86527197,6.28276774 5.055,6.47 L8.585,10 L5.055,13.53 C4.86576429,13.7174966 4.75889077,13.9725717 4.75795278,14.2389629 C4.75701478,14.505354 4.86208937,14.7611754 5.05,14.95 C5.23856371,15.1384048 5.49448471,15.2438202 5.76104008,15.2428816 C6.02759544,15.241943 6.28276774,15.134728 6.47,14.945 L10,11.415 L13.53,14.945 C13.7174966,15.1342357 13.9725717,15.2411092 14.2389629,15.2420472 C14.505354,15.2429852 14.7611754,15.1379106 14.95,14.95 C15.1384048,14.7614363 15.2438202,14.5055153 15.2428816,14.2389599 C15.241943,13.9724046 15.134728,13.7172323 14.945,13.53 L11.415,10 L14.945,6.47 C15.1342357,6.28250341 15.2411092,6.02742829 15.2420472,5.76103714 C15.2429852,5.49464599 15.1379106,5.23882457 14.95,5.05 C14.7614363,4.8615952 14.5055153,4.75617983 14.2389599,4.75711841 C13.9724046,4.75805698 13.7172323,4.86527197 13.53,5.055 L10,8.585 L10,8.586 Z M0.707,14.849 C0.317,14.459 0,13.697 0,13.143 L0,6.857 C0,6.305 0.315,5.543 0.707,5.151 L5.15,0.707 C5.541,0.317 6.303,0 6.857,0 L13.143,0 C13.695,0 14.457,0.315 14.849,0.707 L19.293,5.151 C19.683,5.541 20,6.303 20,6.857 L20,13.143 C20,13.695 19.685,14.457 19.293,14.849 L14.849,19.293 C14.459,19.683 13.697,20 13.143,20 L6.857,20 C6.305,20 5.543,19.685 5.151,19.293 L0.707,14.85 L0.707,14.849 Z"/>
</svg>

<svg xmlns="http://www.w3.org/2000/svg" width="20" height="20" viewBox="0 0 20 20"><path fill="#FFF" fill-rule="evenodd" d="M10 8.586l-3.53-3.53a1.003 1.003 0 0 0-1.42-.006 1.001 1.001 0 0 0 .005 1.42L8.585 10l-3.53 3.53a1.003 1.003 0 0 0-.005 1.42 1.001 1.001 0 0 0 1.42-.005l3.53-3.53 3.53 3.53a1.003 1.003 0 0 0 1.42.005 1.001 1.001 0 0 0-.005-1.42L11.415 10l3.53-3.53a1.003 1.003 0 0 0 .005-1.42 1.001 1.001 0 0 0-1.42.005L10 8.585zM.707 14.849C.317 14.459 0 13.697 0 13.143V6.857c0-.552.315-1.314.707-1.706L5.15.707C5.541.317 6.303 0 6.857 0h6.286c.552 0 1.314.315 1.706.707l4.444 4.444c.39.39.707 1.152.707 1.706v6.286c0 .552-.315 1.314-.707 1.706l-4.444 4.444c-.39.39-1.152.707-1.706.707H6.857c-.552 0-1.314-.315-1.706-.707L.707 14.85z"/></svg>
